!!!OTL: Shortnin' Bread
!!!COM: unknown
!!!ODT: unknown
!!!YOR: The Folksong Fake Book
!!!YOY: 2000
!!!AST: Folk song
!!!YEC: Brian Luke, 2001
**kern	**harm
*k[f#c#g#]	*k[f#c#g#]
*M4/4	*M4/4
*A:	*A:
*>A	*>A
=1	=1
8a	I
4a	.
8f#	.
8e	.
8e	.
4r	.
=2	=2
8a	.
4a	.
8f#	.
4e	.
4r	.
=3	=3
8a	.
8a	.
8f#	.
8f#	.
8e	.
8e	.
8f#	.
8f#	.
=4	=4
8c#	V7
4B	.
[8A	.
4A]	I;
4r	.
*>A'	*>A'
=5	=5
8a	I
4f#	.
4.e	.
4f#	.
=6	=6
4a	.
8f#	.
4.e	.
4r	.
=7	=7
8a	.
8a	.
8f#	.
8f#	.
8e	.
8e	.
8f#	.
8f#	.
=8	=8
8c#	V7
4B	.
[8A	.
4A]	I;
4r	.
*>B	*>B
=9	=9
8A	I
8A	.
8f#	.
8f#	.
8e	.
8e	.
4f#	.
=10	=10
4A	.
4f#	.
4e	.
4f#	.
=11	=11
8A	.
8A	.
8f#	.
8f#	.
8e	.
8e	.
4f#	.
=12	=12
8c#	V7
4B	.
[8A	.
4A]	I;
4r	.
*>B'	*>B'
=13	=13
8A	I
8A	.
8f#	.
8f#	.
8e	.
8e	.
4f#	.
=14	=14
4A	.
4f#	.
4e	.
4f#	.
=15	=15
8A	.
8A	.
8f#	.
8f#	.
8e	.
8e	.
4f#	.
=16	=16
4c#	V7
4B	.
4A	I;
4r	.
*-	*-
